X: 17921
T: House Of Little Lights, The
R: waltz
M: 3/4
K: Dmajor
|:GF ED DB,|DE F2 ED|ED E2 F2|D4 A,2|
E2 EF A2|E2 E F2 A,|E2 EF AF|B2 F3D|
GF ED DB,|DE F2 ED|ED A2 F2|D4 A2|
E2 F2 A2|E2 EF A,2|E2 F2 D2|D2 A2 D2|
B2 G2 F2|D4 AD|B2 G2 F2|D4 Bc|
c2 G2 F2|c4 Bc|c2 G2 F2|BA BF ED|
B2 G2 F2|D4 A2|B2 G2 F2|D4 A,2|E2 E F2A|
E2 EF AB|A4 (3EFA|G2 G2 (3 FED:|

